X: 3590
T: Bill Charlton's Fancy
R: jig
M: 6/8
K: Gmajor
d|b2B a2B|g2B f2B|e2B d2B|cAF DFA|
a2c g2c|f2c e2c|d^cd ^de=c|Bdg B2d|

